archdroid-icon-theme/Archdroid-LightGreen/mimetypes/scalable/text-x-generic-template.svg

<?xml version="1.0" encoding="UTF-8" standalone="no"?>
<svg
   xmlns:dc="http://purl.org/dc/elements/1.1/"
   xmlns:cc="http://creativecommons.org/ns#"
   xmlns:rdf="http://www.w3.org/1999/02/22-rdf-syntax-ns#"
   xmlns:svg="http://www.w3.org/2000/svg"
   xmlns="http://www.w3.org/2000/svg"
   xmlns:sodipodi="http://sodipodi.sourceforge.net/DTD/sodipodi-0.dtd"
   xmlns:inkscape="http://www.inkscape.org/namespaces/inkscape"
   width="48"
   height="48"
   viewBox="0 0 48 48"
   id="svg2"
   version="1.1"
   inkscape:version="0.91 r13725"
   sodipodi:docname="text-x-generic-template.svg"
   style="fill:#8BC34A">
  <metadata
     id="metadata10">
    <rdf:RDF>
      <cc:Work
         rdf:about="">
        <dc:format>image/svg+xml</dc:format>
        <dc:type
           rdf:resource="http://purl.org/dc/dcmitype/StillImage" />
        <dc:title></dc:title>
      </cc:Work>
    </rdf:RDF>
  </metadata>
  <defs
     id="defs8" />
  <sodipodi:namedview
     pagecolor="#ffffff"
     bordercolor="#666666"
     borderopacity="1"
     objecttolerance="10"
     gridtolerance="10"
     guidetolerance="10"
     inkscape:pageopacity="0"
     inkscape:pageshadow="2"
     inkscape:window-width="1366"
     inkscape:window-height="713"
     id="namedview6"
     showgrid="false"
     inkscape:snap-bbox="true"
     inkscape:snap-bbox-midpoints="false"
     inkscape:zoom="6.927819446761244"
     inkscape:cx="-29.44941434514848"
     inkscape:cy="27.70024252605192"
     inkscape:window-x="0"
     inkscape:window-y="30"
     inkscape:window-maximized="1"
     inkscape:current-layer="svg2"
     inkscape:bbox-nodes="true"
     fit-margin-top="0"
     fit-margin-left="0"
     fit-margin-right="0"
     fit-margin-bottom="0" />
  <path
     d="M 12,4 C 9.789999999999999,4 8.019531250000001,5.79 8.01953125,8 L 8,40 c 0,2.21 1.77046855,4 3.98046875,4 L 36,44 c 2.21,0 4,-1.79 4,-4 L 40,16 28,4 12,4 Z M 26,7 37,18 26,18 26,7 Z m -2.923828125,15 1.84765625,0 L 30,36 l -2.076171875,0 -1.0390625,-3 -5.76953125,0 -1.0390625,3 L 18,36 23.076171875,22 Z M 24,24.6640625 21.80859375,31 26.19140625,31 24,24.6640625 Z M 16,38 l 16,0 0,2 -16,0 0,-2 z"
     id="path4174"
     inkscape:connector-curvature="0" />
</svg>

<svg xmlns="http://www.w3.org/2000/svg" viewBox="0 0 48 48" fill="#8BC34A"><path d="m12 4c-2.21 0-3.98 1.79-3.98 4l-.02 32c0 2.21 1.77 4 3.98 4h24.02c2.21 0 4-1.79 4-4v-24l-12-12h-16m14 3l11 11h-11v-11m-2.924 15h1.848l5.076 14h-2.076l-1.039-3h-5.77l-1.039 3h-2.076l5.076-14m.924 2.664l-2.191 6.336h4.383l-2.191-6.336m-8 13.336h16v2h-16v-2z"/></svg>
